V6_wwwroot/ptn/core/icons/fa6/svgs/solid/road-bridge.svg

<svg xmlns="http://www.w3.org/2000/svg" viewBox="0 0 640 512"><!--! Font Awesome Free 6.4.2 by @fontawesome - https://fontawesome.com License - https://fontawesome.com/license/free (Icons: CC BY 4.0, Fonts: SIL OFL 1.1, Code: MIT License) Copyright 2023 Fonticons, Inc. --><path d="M352 0H608c17.7 0 32 14.3 32 32V480c0 17.7-14.3 32-32 32H352c-17.7 0-32-14.3-32-32V32c0-17.7 14.3-32 32-32zM480 200c-13.3 0-24 10.7-24 24v64c0 13.3 10.7 24 24 24s24-10.7 24-24V224c0-13.3-10.7-24-24-24zm24 184c0-13.3-10.7-24-24-24s-24 10.7-24 24v64c0 13.3 10.7 24 24 24s24-10.7 24-24V384zM480 40c-13.3 0-24 10.7-24 24v64c0 13.3 10.7 24 24 24s24-10.7 24-24V64c0-13.3-10.7-24-24-24zM32 96H288v64H248v64h40v96c-53 0-96 43-96 96v64c0 17.7-14.3 32-32 32H128c-17.7 0-32-14.3-32-32V416c0-53-43-96-96-96V224H72V160H32c-17.7 0-32-14.3-32-32s14.3-32 32-32zm168 64H120v64h80V160z"/></svg>

<svg xmlns="http://www.w3.org/2000/svg" viewBox="0 0 640 512"><!--! Font Awesome Free 6.1.1 by @fontawesome - https://fontawesome.com License - https://fontawesome.com/license/free (Icons: CC BY 4.0, Fonts: SIL OFL 1.1, Code: MIT License) Copyright 2022 Fonticons, Inc. --><path d="M352 0H608C625.7 0 640 14.33 640 32V480C640 497.7 625.7 512 608 512H352C334.3 512 320 497.7 320 480V32C320 14.33 334.3 0 352 0zM456 224V288C456 301.3 466.7 312 480 312C493.3 312 504 301.3 504 288V224C504 210.7 493.3 200 480 200C466.7 200 456 210.7 456 224zM504 384C504 370.7 493.3 360 480 360C466.7 360 456 370.7 456 384V448C456 461.3 466.7 472 480 472C493.3 472 504 461.3 504 448V384zM456 64V128C456 141.3 466.7 152 480 152C493.3 152 504 141.3 504 128V64C504 50.75 493.3 40 480 40C466.7 40 456 50.75 456 64zM32 96H288V160H248V224H288V320C234.1 320 192 362.1 192 416V480C192 497.7 177.7 512 160 512H128C110.3 512 96 497.7 96 480V416C96 362.1 53.02 320 0 320V224H72V160H32C14.33 160 0 145.7 0 128C0 110.3 14.33 96 32 96zM200 160H120V224H200V160z"/></svg>
